icons/circle/48/ddms.svg

<svg xmlns="http://www.w3.org/2000/svg" viewBox="0 0 48 48">
 <defs>
  <linearGradient id="linearGradient3764" x1="1" x2="47" gradientUnits="userSpaceOnUse" gradientTransform="matrix(0,-1,1,0,-1.5e-6,47.999998)">
   <stop style="stop-color:#3d3d3d;stop-opacity:1"/>
   <stop offset="1" style="stop-color:#474747;stop-opacity:1"/>
  </linearGradient>
 </defs>
 <g>
  <path d="m 36.31 5 c 5.859 4.062 9.688 10.831 9.688 18.5 c 0 12.426 -10.07 22.5 -22.5 22.5 c -7.669 0 -14.438 -3.828 -18.5 -9.688 c 1.037 1.822 2.306 3.499 3.781 4.969 c 4.085 3.712 9.514 5.969 15.469 5.969 c 12.703 0 23 -10.298 23 -23 c 0 -5.954 -2.256 -11.384 -5.969 -15.469 c -1.469 -1.475 -3.147 -2.744 -4.969 -3.781 z m 4.969 3.781 c 3.854 4.113 6.219 9.637 6.219 15.719 c 0 12.703 -10.297 23 -23 23 c -6.081 0 -11.606 -2.364 -15.719 -6.219 c 4.16 4.144 9.883 6.719 16.219 6.719 c 12.703 0 23 -10.298 23 -23 c 0 -6.335 -2.575 -12.06 -6.719 -16.219 z" style="opacity:0.05"/>
  <path d="m 41.28 8.781 c 3.712 4.085 5.969 9.514 5.969 15.469 c 0 12.703 -10.297 23 -23 23 c -5.954 0 -11.384 -2.256 -15.469 -5.969 c 4.113 3.854 9.637 6.219 15.719 6.219 c 12.703 0 23 -10.298 23 -23 c 0 -6.081 -2.364 -11.606 -6.219 -15.719 z" style="opacity:0.1"/>
  <path d="m 31.25 2.375 c 8.615 3.154 14.75 11.417 14.75 21.13 c 0 12.426 -10.07 22.5 -22.5 22.5 c -9.708 0 -17.971 -6.135 -21.12 -14.75 a 23 23 0 0 0 44.875 -7 a 23 23 0 0 0 -16 -21.875 z" style="opacity:0.2"/>
 </g>
 <g>
  <path d="m 24 1 c 12.703 0 23 10.297 23 23 c 0 12.703 -10.297 23 -23 23 -12.703 0 -23 -10.297 -23 -23 0 -12.703 10.297 -23 23 -23 z" style="fill:url(#linearGradient3764);fill-opacity:1"/>
 </g>
 <path d="m 24,1 0,7 -7,0 0,-5.906 c -0.337,0.108 -0.67,0.221 -1,0.344 l 0,5.563 -7,0 0,-1.438 C 8.654,6.861 8.327,7.183 8,7.501 l 0,0.5 -0.5,0 c -0.318,0.327 -0.64,0.654 -0.938,1 l 1.438,0 0,7 -5.563,0 c -0.123,0.33 -0.236,0.663 -0.344,1 l 5.906,0 0,7 -7,0 c 0,0.334 0.017,0.669 0.031,1 l 6.969,0 0,7 -5.563,0 c 0.127,0.342 0.264,0.666 0.406,1 l 5.156,0 0,7 -0.5,0 c 0.481,0.496 0.976,0.986 1.5,1.438 l 0,-0.438 7,0 0,4.563 c 0.33,0.123 0.663,0.236 1,0.344 l 0,-4.906 7,0 0,6 c 0.334,0 0.669,-0.017 1,-0.031 l 0,-5.969 7,0 0,4.563 c 0.342,-0.127 0.666,-0.264 1,-0.406 l 0,-4.156 6.5,0 c 0.522,-0.476 1.024,-0.978 1.5,-1.5 l 0,-6.5 4.156,0 c 0.142,-0.334 0.279,-0.658 0.406,-1 l -4.563,0 0,-7 5.969,0 c 0.014,-0.331 0.031,-0.666 0.031,-1 l -6,0 0,-7 4.906,0 c -0.108,-0.337 -0.221,-0.67 -0.344,-1 l -4.563,0 0,-7 0.438,0 C 40.983,8.479 40.493,7.984 39.996,7.503 l 0,0.5 -7,0 0,-5.156 c -0.334,-0.142 -0.658,-0.279 -1,-0.406 l 0,5.563 -7,0 0,-6.969 c -0.331,-0.014 -0.666,-0.031 -1,-0.031 z m -15,8 7,0 0,7 -7,0 0,-7 m 8,0 7,0 0,7 -7,0 0,-7 m 8,0 7,0 0,7 -7,0 0,-7 m 8,0 7,0 0,7 -7,0 0,-7 m -24,8 7,0 0,7 -7,0 0,-7 z m 8,0 7,0 0,7 -7,0 0,-7 z m 8,0 7,0 0,7 -7,0 0,-7 z m 8,0 7,0 0,7 -7,0 0,-7 z m -24,8 7,0 0,7 -7,0 0,-7 z m 8,0 7,0 0,7 -7,0 0,-7 z m 8,0 7,0 0,7 -7,0 0,-7 z m 8,0 7,0 0,7 -7,0 0,-7 z m -24,8 7,0 0,7 -7,0 0,-7 z m 8,0 7,0 0,7 -7,0 0,-7 z m 8,0 7,0 0,7 -7,0 0,-7 z m 8,0 7,0 0,7 -7,0 0,-7 z" style="fill:#fff;fill-opacity:0.098"/>
 <g>
  <path d="m 40.03 7.531 c 3.712 4.084 5.969 9.514 5.969 15.469 0 12.703 -10.297 23 -23 23 c -5.954 0 -11.384 -2.256 -15.469 -5.969 4.178 4.291 10.01 6.969 16.469 6.969 c 12.703 0 23 -10.298 23 -23 0 -6.462 -2.677 -12.291 -6.969 -16.469 z" style="opacity:0.1"/>
 </g>
 <path d="m 37 14 a 1 1 0 0 0 -1 1 1 1 0 0 0 0.131 0.49 l -5.869 7.547 A 1 1 0 0 0 30 23 1 1 0 0 0 29.93 23 L 25.865 16.498 A 1 1 0 0 0 26 16 a 1 1 0 0 0 -1 -1 1 1 0 0 0 -1 1 1 1 0 0 0 0.117 0.469 L 19.469 21.12 A 1 1 0 0 0 19 21 1 1 0 0 0 18.531 21.12 L 17.883 20.469 A 1 1 0 0 0 18 20 a 1 1 0 0 0 -1 -1 1 1 0 0 0 -1 1 1 1 0 0 0 0.117 0.469 L 13.469 23.12 A 1 1 0 0 0 13 23 a 1 1 0 0 0 -1 1 1 1 0 0 0 1 1 l 0 9 24 0 0 -18 a 1 1 0 0 0 1 -1 1 1 0 0 0 -1 -1 z" style="fill:#000;opacity:0.1;fill-opacity:1;stroke:none"/>
 <path d="m 12 24 4 -4 2 2 6 -6 5 8 7 -9 0 18 -24 0 z" style="fill:#96af46;opacity:1;fill-opacity:1;stroke:none"/>
 <path d="m 36 15.658 l -5.738 7.379 a 1 1 0 0 0 -0.262 -0.037 a 1 1 0 0 0 -0.07 0.002 l -0.068 -0.109 l -0.861 1.107 a 1 1 0 0 0 1 1 a 1 1 0 0 0 1 -1 a 1 1 0 0 0 -0.031 -0.244 l 5.03 -6.471 l 0 -1.627 z m -12 0.342 a 1 1 0 0 0 0.117 0.469 l -4.648 4.648 a 1 1 0 0 0 -0.469 -0.117 l -1 1 a 1 1 0 0 0 1 1 a 1 1 0 0 0 1 -1 l 4.77 -4.77 l -0.77 -1.23 z m -8 4 a 1 1 0 0 0 0.117 0.469 l -2.648 2.648 a 1 1 0 0 0 -0.469 -0.117 l -1 1 a 1 1 0 0 0 1 1 a 1 1 0 0 0 1 -1 l 3 -3 l -1 -1 z" mix-blend-mode="normal" isolation="auto" white-space="normal" solid-opacity="1" solid-color="#000000" style="visibility:visible;shape-rendering:auto;color-interpolation-filters:linearRGB;fill:#000;opacity:0.1;image-rendering:auto;fill-opacity:1;stroke:none;display:inline;color:#000;fill-rule:nonzero;color-rendering:auto;color-interpolation:sRGB"/>
 <path d="M 36 13 A 1 1 0 0 0 35 14 A 1 1 0 0 0 35.13 14.49 L 29.26 22.04 A 1 1 0 0 0 29 22 A 1 1 0 0 0 28.93 22 L 24.865 15.498 A 1 1 0 0 0 25 15 A 1 1 0 0 0 24 14 A 1 1 0 0 0 23 15 A 1 1 0 0 0 23.12 15.469 L 18.469 20.12 A 1 1 0 0 0 18 20 A 1 1 0 0 0 17.531 20.12 L 16.883 19.469 A 1 1 0 0 0 17 19 A 1 1 0 0 0 16 18 A 1 1 0 0 0 15 19 A 1 1 0 0 0 15.12 19.469 L 12.469 22.12 A 1 1 0 0 0 12 22 A 1 1 0 0 0 11 23 A 1 1 0 0 0 12 24 A 1 1 0 0 0 13 23 L 16 20 L 17 21 A 1 1 0 0 0 18 22 A 1 1 0 0 0 19 21 L 24 16 L 28.1 22.563 A 1 1 0 0 0 28 23 A 1 1 0 0 0 29 24 A 1 1 0 0 0 30 23 A 1 1 0 0 0 29.969 22.756 L 36 15 A 1 1 0 0 0 37 14 A 1 1 0 0 0 36 13 z" mix-blend-mode="normal" isolation="auto" white-space="normal" solid-opacity="1" solid-color="#000000" style="visibility:visible;shape-rendering:auto;color-interpolation-filters:linearRGB;fill:#f9f9f9;opacity:1;image-rendering:auto;fill-opacity:1;stroke:none;display:inline;color:#000;fill-rule:nonzero;color-rendering:auto;color-interpolation:sRGB"/>
</svg>

<svg xmlns="http://www.w3.org/2000/svg" viewBox="0 0 48 48">
  <defs>
    <linearGradient id="a" x1="1" x2="47" gradientUnits="userSpaceOnUse" gradientTransform="rotate(-90 24 24)">
      <stop stop-color="#3d3d3d"/>
      <stop offset="1" stop-color="#474747"/>
    </linearGradient>
  </defs>
  <path d="M36.31 5c5.859 4.062 9.688 10.831 9.688 18.5 0 12.426-10.07 22.5-22.5 22.5-7.669 0-14.438-3.828-18.5-9.688a23.24 23.24 0 0 0 3.781 4.969 22.923 22.923 0 0 0 15.469 5.969c12.703 0 23-10.298 23-23a22.92 22.92 0 0 0-5.969-15.469A23.216 23.216 0 0 0 36.31 5zm4.969 3.781A22.911 22.911 0 0 1 47.498 24.5c0 12.703-10.297 23-23 23a22.909 22.909 0 0 1-15.719-6.219C12.939 45.425 18.662 48 24.998 48c12.703 0 23-10.298 23-23 0-6.335-2.575-12.06-6.719-16.219z" opacity=".05"/>
  <path d="M41.28 8.781a22.923 22.923 0 0 1 5.969 15.469c0 12.703-10.297 23-23 23A22.92 22.92 0 0 1 8.78 41.281 22.911 22.911 0 0 0 24.499 47.5c12.703 0 23-10.298 23-23A22.909 22.909 0 0 0 41.28 8.781z" opacity=".1"/>
  <path d="M31.25 2.375C39.865 5.529 46 13.792 46 23.505c0 12.426-10.07 22.5-22.5 22.5-9.708 0-17.971-6.135-21.12-14.75a23 23 0 0 0 44.875-7 23 23 0 0 0-16-21.875z" opacity=".2"/>
  <path d="M24 1c12.703 0 23 10.297 23 23S36.703 47 24 47 1 36.703 1 24 11.297 1 24 1z" fill="url(#a)"/>
  <path d="M24 1v7h-7V2.094c-.337.108-.67.221-1 .344v5.563H9V6.563c-.346.298-.673.62-1 .938v.5h-.5c-.318.327-.64.654-.938 1H8v7H2.437c-.123.33-.236.663-.344 1h5.906v7h-7c0 .334.017.669.031 1h6.969v7H2.436c.127.342.264.666.406 1h5.156v7h-.5c.481.496.976.986 1.5 1.438v-.438h7v4.563c.33.123.663.236 1 .344v-4.906h7v6c.334 0 .669-.017 1-.031v-5.969h7v4.563c.342-.127.666-.264 1-.406v-4.156h6.5a23.07 23.07 0 0 0 1.5-1.5v-6.5h4.156c.142-.334.279-.658.406-1h-4.563v-7h5.969c.014-.331.031-.666.031-1h-6v-7h4.906c-.108-.337-.221-.67-.344-1h-4.563v-7h.438a22.87 22.87 0 0 0-1.438-1.5v.5h-7V2.847a22.968 22.968 0 0 0-1-.406v5.563h-7V1.035c-.331-.014-.666-.031-1-.031zM9 9h7v7H9V9m8 0h7v7h-7V9m8 0h7v7h-7V9m8 0h7v7h-7V9M9 17h7v7H9v-7zm8 0h7v7h-7v-7zm8 0h7v7h-7v-7zm8 0h7v7h-7v-7zM9 25h7v7H9v-7zm8 0h7v7h-7v-7zm8 0h7v7h-7v-7zm8 0h7v7h-7v-7zM9 33h7v7H9v-7zm8 0h7v7h-7v-7zm8 0h7v7h-7v-7zm8 0h7v7h-7v-7z" fill="#fff" fill-opacity=".098"/>
  <path d="M40.03 7.531A22.922 22.922 0 0 1 45.999 23c0 12.703-10.297 23-23 23A22.92 22.92 0 0 1 7.53 40.031C11.708 44.322 17.54 47 23.999 47c12.703 0 23-10.298 23-23 0-6.462-2.677-12.291-6.969-16.469z" opacity=".1"/>
  <path d="M37 14a1 1 0 0 0-1 1 1 1 0 0 0 .131.49l-5.869 7.547A1 1 0 0 0 30 23a1 1 0 0 0-.07 0l-4.065-6.502A1 1 0 0 0 26 16a1 1 0 0 0-1-1 1 1 0 0 0-1 1 1 1 0 0 0 .117.469l-4.648 4.651A1 1 0 0 0 19 21a1 1 0 0 0-.469.12l-.648-.651A1 1 0 0 0 18 20a1 1 0 0 0-1-1 1 1 0 0 0-1 1 1 1 0 0 0 .117.469l-2.648 2.651A1 1 0 0 0 13 23a1 1 0 0 0-1 1 1 1 0 0 0 1 1v9h24V16a1 1 0 0 0 1-1 1 1 0 0 0-1-1z" opacity=".1"/>
  <path d="M12 24l4-4 2 2 6-6 5 8 7-9v18H12z" fill="#96af46"/>
  <path d="M36 15.658l-5.738 7.379A1 1 0 0 0 30 23a1 1 0 0 0-.07.002l-.068-.109L29.001 24a1 1 0 0 0 1 1 1 1 0 0 0 1-1 1 1 0 0 0-.031-.244L36 17.285v-1.627zM24 16a1 1 0 0 0 .117.469l-4.648 4.648A1 1 0 0 0 19 21l-1 1a1 1 0 0 0 1 1 1 1 0 0 0 1-1l4.77-4.77L24 16zm-8 4a1 1 0 0 0 .117.469l-2.648 2.648A1 1 0 0 0 13 23l-1 1a1 1 0 0 0 1 1 1 1 0 0 0 1-1l3-3-1-1z" white-space="normal" solid-color="#000000" opacity=".1" color="#000"/>
  <path d="M36 13a1 1 0 0 0-1 1 1 1 0 0 0 .13.49l-5.87 7.55A1 1 0 0 0 29 22a1 1 0 0 0-.07 0l-4.065-6.502A1 1 0 0 0 25 15a1 1 0 0 0-1-1 1 1 0 0 0-1 1 1 1 0 0 0 .12.469l-4.651 4.651A1 1 0 0 0 18 20a1 1 0 0 0-.469.12l-.648-.651A1 1 0 0 0 17 19a1 1 0 0 0-1-1 1 1 0 0 0-1 1 1 1 0 0 0 .12.469l-2.651 2.651A1 1 0 0 0 12 22a1 1 0 0 0-1 1 1 1 0 0 0 1 1 1 1 0 0 0 1-1l3-3 1 1a1 1 0 0 0 1 1 1 1 0 0 0 1-1l5-5 4.1 6.563A1 1 0 0 0 28 23a1 1 0 0 0 1 1 1 1 0 0 0 1-1 1 1 0 0 0-.031-.244L36 15a1 1 0 0 0 1-1 1 1 0 0 0-1-1z" white-space="normal" solid-color="#000000" fill="#f9f9f9" color="#000"/>
</svg>
